packages/icons/24x24/service-gas.svg

<svg class="customer-ui__icon" width="24px" height="24px" viewBox="0 0 24 24" fill="#000000" xmlns="http://www.w3.org/2000/svg">
    <title>Gas</title>
    <path d="M5.02586 8.65815L5.037 8.34399L5.06588 7.95366C5.07864 7.82004 5.0944 7.68634 5.11313 7.55257L5.17825 7.15103C5.50823 5.36106 6.35515 3.71079 7.65109 2.39941C8.79174 1.24455 10.1946 0.439797 11.7308 0.0332684C12.4609 -0.159923 13.1334 0.494827 12.9599 1.22981C12.8312 1.77457 12.7654 2.3296 12.7654 2.89022C12.7654 4.66712 13.4348 6.12378 14.9953 8.06384L15.2243 8.34437C17.0377 10.5342 18 12.5649 18 14.903C18 19.9243 13.9732 24 9 24C4.02672 24 0 19.9244 0 14.903C0 13.1186 0.51112 11.4084 1.45622 9.94363C1.75564 9.47956 2.37458 9.34609 2.83865 9.64551C3.30272 9.94493 3.4362 10.5639 3.13677 11.0279C2.39875 12.1718 2 13.506 2 14.903C2 18.8252 5.13672 22 9 22C12.8632 22 16 18.8251 16 14.903C16 13.2079 15.307 11.6564 13.9212 9.91241L13.6838 9.6199C11.7771 7.31692 10.8479 5.47712 10.7707 3.20309L10.7654 2.89022L10.773 2.53999L10.5434 2.66733C10.1001 2.92381 9.68328 3.23087 9.29984 3.58612L9.07384 3.80504C8.06302 4.8279 7.4032 6.11359 7.14513 7.5135C7.10631 7.72422 7.07689 7.93393 7.05692 8.14272L7.033 8.46299L7.02551 8.69758L7.02574 8.95549L7.02976 9.11031L7.05334 9.46668L7.08593 9.77811L7.16952 10.2783L7.29547 10.7984C7.34072 10.9577 7.39009 11.112 7.44378 11.2615C7.63051 11.7812 7.36054 12.3539 6.84078 12.5407C6.32102 12.7274 5.7483 12.4574 5.56157 11.9377L5.46209 11.6447L5.35367 11.2794L5.2376 10.8085L5.20779 10.6679L5.11824 10.1507L5.08795 9.91342L5.05202 9.55294L5.03969 9.37167L5.02482 8.95235L5.02586 8.65815Z" fill="inherit"/>
</svg>

<svg class="customer-ui__icon" width="24" height="24" xmlns="http://www.w3.org/2000/svg"><path d="M5.026 8.658l.011-.314.029-.39c.013-.134.028-.268.047-.401l.065-.402a9.076 9.076 0 012.473-4.752 8.924 8.924 0 014.08-2.366A1 1 0 0112.96 1.23a7.209 7.209 0 00-.195 1.66c0 1.777.67 3.234 2.23 5.174l.23.28c1.813 2.19 2.775 4.22 2.775 6.559C18 19.924 13.973 24 9 24s-9-4.076-9-9.097a9.12 9.12 0 011.456-4.96 1 1 0 011.68 1.085A7.12 7.12 0 002 14.903C2 18.825 5.137 22 9 22s7-3.175 7-7.097c0-1.695-.693-3.247-2.079-4.99l-.237-.293c-1.907-2.303-2.836-4.143-2.913-6.417l-.006-.313.008-.35-.23.127a6.95 6.95 0 00-1.243.92l-.226.218a7.077 7.077 0 00-1.929 3.708c-.039.211-.068.42-.088.63l-.024.32-.007.235v.257l.004.155.023.357.033.311.084.5.125.52c.046.16.095.314.149.463a1 1 0 01-1.882.677l-.1-.293-.108-.366-.116-.47-.03-.141-.09-.517-.03-.238-.036-.36-.012-.181-.015-.42v-.294z" fill="inherit"/></svg>
